findly-builder/apps/searchassist/src/assets/icons/sidemenu/new-icons/Settings.svg

<svg width="16" height="16" viewBox="0 0 16 16" fill="none" xmlns="http://www.w3.org/2000/svg">
<path fill-rule="evenodd" clip-rule="evenodd" d="M7.99979 5.59463C6.6705 5.59463 5.5918 6.67329 5.5918 8.00285C5.5918 9.33242 6.6705 10.4111 7.99979 10.4111C9.32907 10.4111 10.4078 9.33242 10.4078 8.00285C10.4078 6.67329 9.32907 5.59463 7.99979 5.59463ZM7.99979 6.64877C8.74739 6.64877 9.35428 7.25562 9.35428 8.00285C9.35428 8.75008 8.74739 9.35694 7.99979 9.35694C7.25218 9.35694 6.64529 8.75008 6.64529 8.00285C6.64529 7.25562 7.25218 6.64877 7.99979 6.64877Z" fill="#202124"/>
<path fill-rule="evenodd" clip-rule="evenodd" d="M9.46245 0.888672H6.53618C6.2845 0.888672 6.06798 1.06682 6.01936 1.3139L5.93846 1.72493L5.68572 2.95148L5.64577 2.96933C5.33741 3.11047 5.04036 3.28192 4.75437 3.48174L4.703 3.51841L3.45149 3.09989L3.03407 2.97029C2.79954 2.89754 2.54589 2.99659 2.42259 3.20905L2.21189 3.57211L1.17408 5.30819L0.959925 5.67712C0.833341 5.89525 0.878942 6.17254 1.0687 6.33857L1.37723 6.60852L2.32507 7.41541L2.30096 7.57737C2.2804 7.73077 2.27047 7.86133 2.27047 7.99978L2.271 8.06006C2.27346 8.19523 2.28467 8.31533 2.30891 8.47923L2.32507 8.58385L1.38265 9.38637L1.0687 9.661C0.878942 9.82703 0.833341 10.1043 0.959925 10.3224L1.17062 10.6855L2.21535 12.4333L2.42229 12.7909C2.54567 13.0041 2.80015 13.1033 3.03513 13.0299L3.44148 12.9029L4.703 12.4809L4.75437 12.5178C5.04036 12.7176 5.33741 12.8891 5.64577 13.0302L5.68572 13.0478L5.93936 14.2791L6.01936 14.6857C6.06798 14.9327 6.2845 15.1109 6.53618 15.1109H9.46245C9.71369 15.1109 9.92996 14.9334 9.97904 14.6868L10.0609 14.2758L10.3125 13.0478L10.3529 13.0302C10.6612 12.8891 10.9583 12.7176 11.2443 12.5178L11.2952 12.4809L12.5471 12.8997L12.9635 13.0299C13.1981 13.1032 13.4522 13.0044 13.5758 12.7918L13.7875 12.4278L14.8246 10.6912L15.0391 10.3233C15.1665 10.1049 15.1208 9.82667 14.9303 9.66047L14.6208 9.39053L13.6738 8.58418L13.684 8.51947C13.7161 8.31108 13.7282 8.17308 13.7282 7.99978L13.7277 7.94318C13.7252 7.79495 13.7125 7.66533 13.684 7.4801L13.6735 7.41508L14.616 6.61319L14.9303 6.33909C15.1208 6.1729 15.1665 5.89471 15.0391 5.67624L14.8275 5.31318L13.7843 3.56642L13.5755 3.20817C13.452 2.99627 13.1987 2.89766 12.9646 2.97029L12.5582 3.09633L11.2952 3.51841L11.2443 3.48174C10.9583 3.28192 10.6612 3.11047 10.3529 2.96933L10.3125 2.95148L10.0603 1.72079L9.97904 1.31276C9.92996 1.06622 9.71369 0.888672 9.46245 0.888672ZM6.969 1.94248H9.03023L9.33681 3.43673C9.37301 3.61316 9.49673 3.75889 9.66489 3.82314C10.089 3.98521 10.4926 4.21939 10.8767 4.52064L10.9198 4.55108C11.0528 4.63538 11.2176 4.6562 11.3687 4.60566L12.8765 4.10115L13.9092 5.83059L12.7632 6.80637C12.6223 6.92635 12.5546 7.11155 12.5849 7.29422L12.6393 7.61814C12.6655 7.78648 12.6747 7.88625 12.6747 7.99978L12.6732 8.07434C12.6698 8.16104 12.6597 8.25049 12.6393 8.38142L12.5849 8.70535L12.579 8.75518C12.5675 8.92115 12.6351 9.08412 12.7632 9.1932L13.9092 10.1687L12.8761 11.8981L11.3687 11.3939C11.2008 11.3378 11.016 11.3697 10.8767 11.4789C10.4926 11.7802 10.089 12.0144 9.66489 12.1764L9.62016 12.1959C9.47496 12.2674 9.36972 12.4024 9.33681 12.5628L9.03023 14.0565H6.969L6.66175 12.5625C6.62547 12.3862 6.50179 12.2406 6.33374 12.1764C5.9096 12.0144 5.50604 11.7802 5.12189 11.4789L5.0788 11.4485C4.9458 11.3642 4.781 11.3434 4.62994 11.3939L3.12276 11.8978L2.08902 10.1687L3.23541 9.1932C3.37586 9.07364 3.44361 8.8893 3.41402 8.70718L3.36542 8.41728C3.33447 8.22476 3.32396 8.11998 3.32396 7.99978C3.32396 7.87537 3.33793 7.74744 3.36987 7.55404L3.41349 7.29558L3.41949 7.24564C3.43148 7.07926 3.36389 6.91574 3.23541 6.80637L2.08902 5.83059L3.12243 4.10115L4.62994 4.60566C4.79778 4.66181 4.9826 4.62987 5.12189 4.52064C5.50604 4.21939 5.9096 3.98521 6.33374 3.82314L6.37844 3.80365C6.52355 3.7322 6.62877 3.59731 6.66175 3.43704L6.969 1.94248Z" fill="#202124"/>
</svg>

<svg width="16" height="16" fill="none" xmlns="http://www.w3.org/2000/svg"><path fill-rule="evenodd" clip-rule="evenodd" d="M8 5.595a2.409 2.409 0 1 0 0 4.817 2.409 2.409 0 0 0 0-4.817Zm0 1.054a1.355 1.355 0 1 1-.001 2.71 1.355 1.355 0 0 1 0-2.71Z" fill="#202124"/><path fill-rule="evenodd" clip-rule="evenodd" d="M9.462.889H6.536a.527.527 0 0 0-.517.425l-.08.41-.253 1.227-.04.018a5.693 5.693 0 0 0-.892.513l-.051.036L3.451 3.1l-.417-.13a.527.527 0 0 0-.611.239l-.211.363-1.038 1.736-.214.37a.527.527 0 0 0 .109.66l.308.27.948.807-.024.162c-.02.154-.03.284-.03.423v.06c.002.135.014.255.038.42l.016.104-.942.802-.314.275a.527.527 0 0 0-.11.661l.212.364 1.044 1.747.207.358a.527.527 0 0 0 .613.239l.406-.127 1.262-.422.051.037c.286.2.583.371.892.512l.04.018.253 1.231.08.407a.527.527 0 0 0 .517.425h2.926a.527.527 0 0 0 .517-.424l.082-.411.252-1.228.04-.018a5.6 5.6 0 0 0 .891-.512l.051-.037 1.252.419.416.13a.527.527 0 0 0 .613-.238l.211-.364 1.038-1.737.214-.368a.527.527 0 0 0-.109-.663l-.31-.27-.946-.806.01-.065c.032-.208.044-.346.044-.52v-.056a3.21 3.21 0 0 0-.044-.463l-.01-.065.942-.802.314-.274a.527.527 0 0 0 .11-.663l-.212-.363-1.044-1.747-.209-.358a.527.527 0 0 0-.61-.238l-.407.126-1.263.422-.05-.036a5.696 5.696 0 0 0-.892-.513l-.04-.018-.253-1.23-.081-.408a.527.527 0 0 0-.517-.424ZM6.97 1.942h2.06l.307 1.495c.036.176.16.322.328.386a4.66 4.66 0 0 1 1.212.698l.043.03a.527.527 0 0 0 .449.055l1.508-.505 1.032 1.73-1.146.975a.527.527 0 0 0-.178.488l.054.324c.027.168.036.268.036.382l-.002.074a2.611 2.611 0 0 1-.034.307l-.054.324-.006.05a.528.528 0 0 0 .184.438l1.146.976-1.033 1.73-1.507-.505a.527.527 0 0 0-.492.085 4.657 4.657 0 0 1-1.212.697l-.045.02a.527.527 0 0 0-.283.367l-.307 1.493H6.97l-.307-1.493a.527.527 0 0 0-.328-.387 4.657 4.657 0 0 1-1.212-.697l-.043-.03a.527.527 0 0 0-.45-.055l-1.506.504-1.034-1.73 1.146-.975a.527.527 0 0 0 .179-.486l-.049-.29A2.44 2.44 0 0 1 3.324 8c0-.125.014-.253.046-.446l.043-.258.006-.05a.527.527 0 0 0-.184-.44L2.09 5.831 3.122 4.1l1.508.505a.527.527 0 0 0 .492-.085 4.66 4.66 0 0 1 1.212-.698l.044-.02a.527.527 0 0 0 .284-.366l.307-1.495Z" fill="#202124"/></svg>
